X: 20201
M: C|
L: 1/8
K: Bb
V: 1 staves=3
f>e |\
dBdf b2ag | f2f>f f2f>e | dBdf bfdB | c2c>c c2f>e |\
dBdf b2ag | f2f>f f2e2 | (3(def) (3(gfe) d2c2 | B2B>B B2 :|
|: f>e |\
dBdB dBed | cBAB c2f>e | dBdf bfdB | c2c>c c2f>e |\
dBdf b2bg | f2f>f f2e2 | (3def (3(gfe) d2c2 | B2B>B B2 :|
V: 2
d>c |\
|: d>c |\
V: 3 clef=bass middle=d
|: B2 |\


